X:81
T:Garden Gate - Hard
%%VWML:SBG-1-2-653-0
F:http://www.vwml.org/record/SBG/1/2/653
Z:Original Sibelius transcriptions by M. & S. Graebe
L:1/4
M:4/4
I:linebreak $
K:C
V:1 treble nm="P1"
V:1
 D | G B B d | d3/2 B/ G B | c/ c3/2 B3/2 A/ | G2 z D | G B B d | d3/2 B/ G B |$ c3/2 c/ B3/2 A/ | %8
 G2 z d | d3/2 B/ A3/2 c/ | B G G B | A D D3/2 D/ | G A B G | c d e3/2 d/ |$ c/B/A/ G3/2 d/ | B | %16
 A D D3/2 | D/ | A B | G c d !fermata!e | d c/B/ A G | d B G !fermata!G | %22



